X: 12976
T: Field Of Bannockburn, The
R: strathspey
M: 4/4
K: Gdorian
F|D<GG>A B>c (3dcB|A<Fc>F d>Fc>F|D<GG>A B>c dg/^f/|g>d (3cBA G2 G:|
g/^f/|g2 G>A B>cd<g|f2 F>G A>Bc<a|g2 G>A B>c dg/^f/|g>d (3cBA G2 G>g|
g2 G>A B>cd<g|f2 F>G A>B cb/a/|g<dd>e f>ga<g|(3fed (3cBA G2 G||

